src/images_karasa_jaga_svg/cmd/lc_flowchartshapes.flowchart-decision.svg

<svg height="24" viewBox="0 0 24 24" width="24" xmlns="http://www.w3.org/2000/svg" xmlns:xlink="http://www.w3.org/1999/xlink"><linearGradient id="a" gradientTransform="matrix(.40973888 0 0 .24845378 46.139136 75.636575)" gradientUnits="userSpaceOnUse" x1="29.389118" x2="29.389118" y1="210.7572" y2="-304.42191"><stop offset="0" stop-color="#fff"/><stop offset=".45454547" stop-color="#fff"/><stop offset=".68181819" stop-color="#f1f1f1"/><stop offset=".90909094" stop-color="#eaeaea"/><stop offset="1" stop-color="#dfdfdf"/></linearGradient><linearGradient id="b" gradientUnits="userSpaceOnUse" x1="5.818658" x2="122.17939" y1="64.000534" y2="64.000534"><stop offset="0" stop-color="#7c9fcf"/><stop offset=".5" stop-color="#7c9ece"/><stop offset="1" stop-color="#7b9dcf"/></linearGradient><g fill-rule="evenodd" transform="matrix(.171875 0 0 .171875 1.000155 .999845)"><path d="m63.916016 5.8203125a5.8193537 5.8193537 0 0 0 -4.03125 1.7050781l-52.3632816 52.3769534a5.8193537 5.8193537 0 0 0 .00195 8.228515l52.3632846 52.347661a5.8193537 5.8193537 0 0 0 8.226562 0l52.361329-52.347661a5.8193537 5.8193537 0 0 0 .002-8.228515l-52.361376-52.3769534a5.8193537 5.8193537 0 0 0 -4.199218-1.7050781z" fill="url(#b)"/><path d="m64 11.638672-52.363281 52.376953 52.363281 52.347655 52.36133-52.347655z" fill="url(#a)"/></g></svg>

<?xml version="1.0" encoding="UTF-8" standalone="no"?>
<!-- Created with Inkscape (http://www.inkscape.org/) -->

<svg
   xmlns:dc="http://purl.org/dc/elements/1.1/"
   xmlns:cc="http://creativecommons.org/ns#"
   xmlns:rdf="http://www.w3.org/1999/02/22-rdf-syntax-ns#"
   xmlns:svg="http://www.w3.org/2000/svg"
   xmlns="http://www.w3.org/2000/svg"
   xmlns:xlink="http://www.w3.org/1999/xlink"
   xmlns:sodipodi="http://sodipodi.sourceforge.net/DTD/sodipodi-0.dtd"
   xmlns:inkscape="http://www.inkscape.org/namespaces/inkscape"
   version="1.1"
   id="svg2"
   width="128"
   height="128"
   viewBox="0 0 128 128"
   sodipodi:docname="lc_flowchartshapes.flowchart-decision.svg"
   inkscape:export-filename="/home/rizmut/Dokumen/Rizmut/Github/libreoffice-style-karasa-jaga/build/images_karasa_jaga/cmd/lc_flowchartshapes.flowchart-decision.png"
   inkscape:export-xdpi="16.5"
   inkscape:export-ydpi="16.5"
   inkscape:version="0.92.3 (unknown)">
  <metadata
     id="metadata8">
    <rdf:RDF>
      <cc:Work
         rdf:about="">
        <dc:format>image/svg+xml</dc:format>
        <dc:type
           rdf:resource="http://purl.org/dc/dcmitype/StillImage" />
        <dc:title />
      </cc:Work>
    </rdf:RDF>
  </metadata>
  <defs
     id="defs6">
    <inkscape:perspective
       id="perspective27"
       inkscape:persp3d-origin="64 : 42.666667 : 1"
       inkscape:vp_z="128 : 64 : 1"
       inkscape:vp_y="0 : 1000 : 0"
       inkscape:vp_x="0 : 64 : 1"
       sodipodi:type="inkscape:persp3d" />
    <linearGradient
       id="linearGradient3369">
      <stop
         id="stop3372"
         offset="0"
         style="stop-color:#ffffff;stop-opacity:1;" />
      <stop
         style="stop-color:#ffffff;stop-opacity:1;"
         offset="0.45454547"
         id="stop3374" />
      <stop
         style="stop-color:#f1f1f1;stop-opacity:1;"
         offset="0.68181819"
         id="stop3376" />
      <stop
         id="stop3378"
         offset="0.90909094"
         style="stop-color:#eaeaea;stop-opacity:1;" />
      <stop
         id="stop3384"
         offset="1"
         style="stop-color:#dfdfdf;stop-opacity:1;" />
    </linearGradient>
    <linearGradient
       id="linearGradient7422">
      <stop
         style="stop-color:#7c9fcf;stop-opacity:1"
         offset="0"
         id="stop7424" />
      <stop
         id="stop5348"
         offset="0.5"
         style="stop-color:#7c9ece;stop-opacity:1" />
      <stop
         id="stop7426"
         offset="1"
         style="stop-color:#7b9dcf;stop-opacity:1" />
    </linearGradient>
    <linearGradient
       y2="388.95178"
       x2="399.77466"
       y1="1324.7792"
       x1="405.94968"
       gradientTransform="matrix(0.08097132,0,0,0.07807154,182.74486,-6.9021226)"
       gradientUnits="userSpaceOnUse"
       id="linearGradient2330"
       xlink:href="#linearGradient7422"
       inkscape:collect="always" />
    <linearGradient
       y2="-304.42191"
       x2="29.389118"
       y1="210.7572"
       x1="29.389118"
       gradientTransform="matrix(0.40973888,0,0,0.24845378,46.139136,75.636575)"
       gradientUnits="userSpaceOnUse"
       id="linearGradient2360"
       xlink:href="#linearGradient3369"
       inkscape:collect="always" />
    <linearGradient
       inkscape:collect="always"
       xlink:href="#linearGradient7422"
       id="linearGradient1616"
       x1="5.8186584"
       y1="64.000534"
       x2="122.17939"
       y2="64.000534"
       gradientUnits="userSpaceOnUse" />
  </defs>
  <sodipodi:namedview
     pagecolor="#ffffff"
     bordercolor="#666666"
     borderopacity="1"
     objecttolerance="10"
     gridtolerance="10"
     guidetolerance="10"
     inkscape:pageopacity="0"
     inkscape:pageshadow="2"
     inkscape:window-width="1366"
     inkscape:window-height="657"
     id="namedview4"
     showgrid="true"
     inkscape:snap-page="true"
     inkscape:snap-global="true"
     inkscape:zoom="0.86600385"
     inkscape:cx="-96.77362"
     inkscape:cy="-79.353656"
     inkscape:window-x="0"
     inkscape:window-y="30"
     inkscape:window-maximized="1"
     inkscape:current-layer="svg2"
     showguides="false"
     inkscape:snap-bbox="true">
    <inkscape:grid
       type="xygrid"
       id="grid837"
       spacingx="5.8181"
       spacingy="5.8181"
       empspacing="1" />
  </sodipodi:namedview>
  <path
     sodipodi:type="inkscape:offset"
     inkscape:radius="5.8187718"
     inkscape:original="M 64 11.638672 L 11.636719 64.015625 L 64 116.36328 L 116.36133 64.015625 L 64 11.638672 z "
     style="fill:url(#linearGradient1616);fill-opacity:1.0;fill-rule:evenodd;stroke:none;stroke-width:4.47213125;stroke-linecap:round;stroke-linejoin:round;stroke-miterlimit:4;stroke-dasharray:none;stroke-opacity:1"
     id="path1606"
     d="m 63.916016,5.8203125 a 5.8193537,5.8193537 0 0 0 -4.03125,1.7050781 L 7.5214844,59.902344 a 5.8193537,5.8193537 0 0 0 0.00195,8.228515 L 59.886719,120.47852 a 5.8193537,5.8193537 0 0 0 8.226562,0 L 120.47461,68.130859 a 5.8193537,5.8193537 0 0 0 0.002,-8.228515 L 68.115234,7.5253906 A 5.8193537,5.8193537 0 0 0 63.916016,5.8203125 Z" />
  <path
     style="fill:url(#linearGradient2360);fill-opacity:1;fill-rule:evenodd;stroke:none;stroke-width:4.47213125;stroke-linecap:round;stroke-linejoin:round;stroke-miterlimit:4;stroke-dasharray:none;stroke-opacity:1"
     d="M 64 11.638672 L 11.636719 64.015625 L 64 116.36328 L 116.36133 64.015625 L 64 11.638672 z "
     id="path37359" />
  <g
     transform="matrix(0,0.57912965,0.57912965,0,27.114229,-2.9133545)"
     inkscape:label="Livello 1"
     id="g1544" />
  <g
     transform="matrix(0,-0.57912965,0.57912965,0,27.114229,130.91165)"
     inkscape:label="Livello 1"
     id="g1599" />
</svg>
